!!!OTL: John, Come Kiss me now 
!!!id: HA041
**kern
*clefF4
*k[b-e-a-]
*E-:
*M4/4
{4B-
=1
4e-
8.e-
16f
16e-
16f
8g
8.f
16e-
=2
4a-
8.a-
16b-
4a-}
{8g
8f
=3
4e-
8e-
8f
8g
8f
8g
8a
=4
4b-
8.b-
16cc
8b-
8B-}
{8c
8d
=5
4e-
8.e-
16f
16e-
16f
8g
8.f
16e-
=6
4a-
8.a-
16b-
16a-
16b-
8cc}
{8b-
8a-
=7
4g
8f
8e-
8d
8e-
8f
8a-
=8
4g
8.f
16e-
4e-}
{4b-
=9
4ee-
8.ee-
16ff
8ee-
8dd-
8cc
8b-
=10
4a-
8.a-
16b-
8a-
8b-}
{8cc
8dd
=11
4ee-
8.ee-
16ff
16ee-
16ff
8gg
8ff
8ee-
=12
8.dd
16cc
8b-
8cc
8dd
8b-}
{8cc
8dd
=13
8.ee-
16dd
8ee-
8ff
8ee-
8dd
8cc
8b-
=14
8.a-
16b-
8.cc
16dd
4ee-}
==
*-
!!!minrhy: 16
!!!meter: 4/4 
!!!cut: John, Come Kiss me now 
!!!key: HA041  16 Eb 4/4 
!!!bem: Vorschlge; Triller
!!!fog: a--b--av-c--aw-aw'aw"d--
!! Haydn: Volksliedbearbeitungen, Bd1
